static/assets/img/icons/theme/text/text-height.svg

<svg height="24" viewBox="0 0 24 24" width="24" xmlns="http://www.w3.org/2000/svg"><g fill="none" fill-rule="evenodd"><path d="m0 0h24v24h-24z" opacity="0"/><g fill="#000"><path d="m8.5 8v10c0 .5522847-.44771525 1-1 1h-1c-.55228475 0-1-.4477153-1-1v-10h-3.5c-.55228475 0-1-.44771525-1-1v-1c0-.55228475.44771525-1 1-1h10c.5522847 0 1 .44771525 1 1v1c0 .55228475-.4477153 1-1 1z" opacity=".3"/><path d="m20 16.5857864 1.2928932-1.2928932c.3905243-.3905243 1.0236893-.3905243 1.4142136 0s.3905243 1.0236893 0 1.4142136l-3 3c-.3905243.3905243-1.0236893.3905243-1.4142136 0l-3-3c-.3905243-.3905243-.3905243-1.0236893 0-1.4142136s1.0236893-.3905243 1.4142136 0l1.2928932 1.2928932v-9.17157284l-1.2928932 1.29289322c-.3905243.39052429-1.0236893.39052429-1.4142136 0s-.3905243-1.02368927 0-1.41421356l3-3c.3905243-.39052429 1.0236893-.39052429 1.4142136 0l3 3c.3905243.39052429.3905243 1.02368927 0 1.41421356s-1.0236893.39052429-1.4142136 0l-1.2928932-1.29289322z"/></g></g></svg>

<svg width="24px" height="24px" viewBox="0 0 24 24" version="1.1" xmlns="http://www.w3.org/2000/svg" xmlns:xlink="http://www.w3.org/1999/xlink">
    <title>Icon For Text-height</title>
    <g stroke="none" stroke-width="1" fill="none" fill-rule="evenodd">
        <rect opacity="0" x="0" y="0" width="24" height="24"></rect>
        <path d="M8.5,8 L8.5,18 C8.5,18.5522847 8.05228475,19 7.5,19 L6.5,19 C5.94771525,19 5.5,18.5522847 5.5,18 L5.5,8 L2,8 C1.44771525,8 1,7.55228475 1,7 L1,6 C1,5.44771525 1.44771525,5 2,5 L12,5 C12.5522847,5 13,5.44771525 13,6 L13,7 C13,7.55228475 12.5522847,8 12,8 L8.5,8 Z" fill="#000000" opacity="0.3"></path>
        <path d="M20,16.5857864 L21.2928932,15.2928932 C21.6834175,14.9023689 22.3165825,14.9023689 22.7071068,15.2928932 C23.0976311,15.6834175 23.0976311,16.3165825 22.7071068,16.7071068 L19.7071068,19.7071068 C19.3165825,20.0976311 18.6834175,20.0976311 18.2928932,19.7071068 L15.2928932,16.7071068 C14.9023689,16.3165825 14.9023689,15.6834175 15.2928932,15.2928932 C15.6834175,14.9023689 16.3165825,14.9023689 16.7071068,15.2928932 L18,16.5857864 L18,7.41421356 L16.7071068,8.70710678 C16.3165825,9.09763107 15.6834175,9.09763107 15.2928932,8.70710678 C14.9023689,8.31658249 14.9023689,7.68341751 15.2928932,7.29289322 L18.2928932,4.29289322 C18.6834175,3.90236893 19.3165825,3.90236893 19.7071068,4.29289322 L22.7071068,7.29289322 C23.0976311,7.68341751 23.0976311,8.31658249 22.7071068,8.70710678 C22.3165825,9.09763107 21.6834175,9.09763107 21.2928932,8.70710678 L20,7.41421356 L20,16.5857864 Z" fill="#000000"></path>
    </g>
</svg>
